X:1
T:Jurassic Park Game Boy Level 1 Music
T:Jurassic Park Game Boy Level 1 Music arr. Jure Nagode
%%score 1 { 2 | 3 }
L:1/8
M:4/4
K:A
V:1 treble nm="Piano"
V:2 treble nm="Klavir"
V:3 bass 
V:1
O z8 | z8 | z8 | z8 | z8 | z8 | z8 |OO z8 |!fff!!<(! f7 g/a/!<)! |!f!!fff!!<(! e7 g/a/!<)! | %10
!f!!fff!!<(! d7 g/a/!<)! |!f!!fff!!<(! c6 !~(!C!~)!F,!<)! | F/GABcdB/ c2 | f/edcdcB/ c2 | %14
 F/GABcdB/ c2 | B/AGFDCB,/ .A,.G, | F/GABcdB/ c2 | f/edcdcB/ c2 | F/GABcdB/ c2 | %19
 B/AGFDCB,/ .A,.G, | z8 | z8 | z8 | z8 | ffe !^!f2 cef | (!tenuto!a.b).a.g (!tenuto!a.g).f.e | %26
 ffe !^!f2 cef | ee(!tenuto!f.e) .^d.B B/c/d/e/ | ffe !^!f2 cef | %29
 (!tenuto!a.b).a.g (!tenuto!a.g).f.e | ffe !^!f2 cef | ee(!tenuto!f.e) .^d.B B/c/d/e/ | %32
!>(! f2 z2 z4!>)! | z8 | z8 | z8 |!fff! ggf !^!g2 ^dfg | (!tenuto!b.c').b.^a (!tenuto!b.a).g.f | %38
 ggf !^!g2 ^dfg | ff(!tenuto!g.f) .^e.c c/^d/e/f/ | ggf !^!g2 ^dfg | %41
 (!tenuto!b.c').b.^a (!tenuto!b.a).g.f | ggf !^!g2 ^dfg | ff(!tenuto!g.f) .^e.c c/^d/e/f/ | %44
!>(! g2 z2 z4!>)! | B,2 B,2 C2 C2 | G,2 G,2 G,2 G,2 | B,2 B,2 F,2 F,2!D.C.! :| %48
V:2
 .Ff c/!tenuto!f.Ff!tenuto!c.c/f | .Ff B/!tenuto!f.Ff!tenuto!B.B/f | %2
 .Ff A/!tenuto!f.Ff!tenuto!A.A/f | .Ff B/!tenuto!f.Ff!tenuto!B.B/f | %4
 .Ff c/!tenuto!f.Ff!tenuto!c.c/f | .Ff B/!tenuto!f.Ff!tenuto!B.B/f | %6
 .Ff A/!tenuto!f.Ff!tenuto!A.A/f |!>(! .Ff B/!tenuto!f.Ff!tenuto!B.B/f!>)! | %8
!mf! .Ff c/!tenuto!f.Ff!tenuto!c.c/f |!mf! .Ff B/!tenuto!f.Ff!tenuto!B.B/f | %10
!mf! .Ff A/!tenuto!f.Ff!tenuto!A.A/f |!mf! .Ff B/!tenuto!f.Ff!tenuto!B.B/f | %12
 .Ff c/!tenuto!f.Ff!tenuto!c.c/f |!mf! .Ff B/!tenuto!f.Ff!tenuto!B.B/f | %14
!mf! .Ff A/!tenuto!f.Ff!tenuto!A.A/f |!mf! .Ff B/!tenuto!f.Ff!tenuto!B.B/f | %16
 .Ff c/!tenuto!f.Ff!tenuto!c.c/f |!mf! .Ff B/!tenuto!f.Ff!tenuto!B.B/f | %18
!mf! .Ff A/!tenuto!f.Ff!tenuto!A.A/f |!mf! .Ff B/!tenuto!f.Ff!tenuto!B.B/f | %20
 z [FAc]/[FAc]/ z [FAc]/[FAc]/ z [FAc]/[FAc]/ z [FAc]/[FAc]/ | %21
 z [Ace]/[Ace]/ z [Ace]/[Ace]/ z [B^df]/[Bdf]/ z [Bdf]/[Bdf]/ | %22
 z [FAc]/[FAc]/ z [FAc]/[FAc]/ z [FAc]/[FAc]/ z [FAc]/[FAc]/ | %23
 z [Ace]/[Ace]/ z [Ace]/[Ace]/ z [EGB]/[EGB]/ z [EGB]/[EGB]/ | %24
 z [FAc]/[FAc]/ z [FAc]/[FAc]/ z [FAc]/[FAc]/ z [FAc]/[FAc]/ | %25
 z [Ace]/[Ace]/ z [Ace]/[Ace]/ z [B^df]/[Bdf]/ z [Bdf]/[Bdf]/ | %26
 z [FAc]/[FAc]/ z [FAc]/[FAc]/ z [FAc]/[FAc]/ z [FAc]/[FAc]/ | %27
 z [Ace]/[Ace]/ z [Ace]/[Ace]/ z [EGB]/[EGB]/ z [EGB]/[EGB]/ | %28
 z [FAc]/[FAc]/ z [FAc]/[FAc]/ z [FAc]/[FAc]/ z [FAc]/[FAc]/ | %29
 z [Ace]/[Ace]/ z [Ace]/[Ace]/ z [B^df]/[Bdf]/ z [Bdf]/[Bdf]/ | %30
 z [FAc]/[FAc]/ z [FAc]/[FAc]/ z [FAc]/[FAc]/ z [FAc]/[FAc]/ | %31
 z [Ace]/[Ace]/ z [Ace]/[Ace]/ z [EGB]/[EGB]/ z [EGB]/[EGB]/ | %32
 z [FAc]/[FAc]/ z [FAc]/[FAc]/ z [FAc]/[FAc]/ z [FAc]/[FAc]/ | %33
 z [Ace]/[Ace]/ z [Ace]/[Ace]/ z [B^df]/[Bdf]/ z [Bdf]/[Bdf]/ | %34
 z [FAc]/[FAc]/ z [FAc]/[FAc]/ z [FAc]/[FAc]/ z [FAc]/[FAc]/ | %35
!<(! z [Ace]/[Ace]/ z [Ace]/[Ace]/ z [EGB]/[EGB]/ z [EGB]/[EGB]/!<)! | %36
!ff! z [GB^d]/[GBd]/ z [GBd]/[GBd]/ z [GBd]/[GBd]/ z [GBd]/[GBd]/ | %37
 z [B^df]/[Bdf]/ z [Bdf]/[Bdf]/ z [c^eg]/[ceg]/ z [ceg]/[ceg]/ | %38
 z [GB^d]/[GBd]/ z [GBd]/[GBd]/ z [GBd]/[GBd]/ z [GBd]/[GBd]/ | %39
 z [B^df]/[Bdf]/ z [Bdf]/[Bdf]/ z [F^Ac]/[FAc]/ z [FAc]/[FAc]/ | %40
 z [GB^d]/[GBd]/ z [GBd]/[GBd]/ z [GBd]/[GBd]/ z [GBd]/[GBd]/ | %41
 z [B^df]/[Bdf]/ z [Bdf]/[Bdf]/ z [c^eg]/[ceg]/ z [ceg]/[ceg]/ | %42
 z [GB^d]/[GBd]/ z [GBd]/[GBd]/ z [GBd]/[GBd]/ z [GBd]/[GBd]/ | %43
 z [B^df]/[Bdf]/ z [Bdf]/[Bdf]/ z [F^Ac]/[FAc]/ z [FAc]/[FAc]/ | %44
 z [GB^d]/[GBd]/ z [GBd]/[GBd]/ z [GBd]/[GBd]/ z [GBd]/[GBd]/ | %45
 z [B^df]/[Bdf]/ z [Bdf]/[Bdf]/ z [c^eg]/[ceg]/ z [ceg]/[ceg]/ | %46
 z [GB^d]/[GBd]/ z [GBd]/[GBd]/ z [GBd]/[GBd]/ z [GBd]/[GBd]/ | %47
 z [B^df]/[Bdf]/ z [Bdf]/[Bdf]/ z [F^Ac]/[FAc]/ z [FAc]/[FAc]/ :| %48
V:3
 z8 | z8 | z8 | z8 | z/ F,,/F,,/F,,/ F,,/ z/ z F,,/F,,F,,F,,/F,, | %5
 z/ F,,/F,,/F,,/ F,,/ z/ z F,,/F,,F,,F,,/F,,/F,,/ | %6
 z/ F,,/F,,/F,,/ F,,/ z/ z F,,/F,,F,,F,,/F,,/F,,/ | %7
 z/ F,,/F,,/F,,/ F,,/ z/ z F,,/F,,F,,F,,/F,,/F,,/ | F,,/F,,/F,,/F,,/ F,,/ z/ z F,,/F,,F,,F,,/F,, | %9
 F,,/F,,/F,,/F,,/ F,,/ z/ z F,,/F,,F,,F,,/F,, | F,,/F,,/F,,/F,,/ F,,/ z/ z F,,/F,,F,,F,,/F,, | %11
 F,,/F,,/F,,/F,,/ F,,/ z/ z F,,/F,,F,,F,,/F,, | z/ F,,/F,,/F,,/ F,,/ z/ z F,,/F,,F,,F,,/F,, | %13
 z/ F,,/F,,/F,,/ F,,/ z/ z F,,/F,,F,,F,,/F,, | z/ F,,/F,,/F,,/ F,,/ z/ z F,,/F,,F,,F,,/F,, | %15
 z/ F,,/F,,/F,,/ F,,/ z/ z F,,/F,,F,,F,,/F,, | z/ F,,/F,,/F,,/ F,,/ z/ z F,,/F,,F,,F,,/F,, | %17
 z/ F,,/F,,/F,,/ F,,/ z/ z F,,/F,,F,,F,,/F,, | z/ F,,/F,,/F,,/ F,,/ z/ z F,,/F,,F,,F,,/F,, | %19
 z/ F,,/F,,/F,,/ F,,/ z/ z F,,/F,,F,,F,,/F,, | F,,2 F,,2 F,,2 F,,2 | A,,2 A,,2 B,,2 B,,2 | %22
 F,,2 F,,2 F,,2 F,,2 | A,,2 A,,2 E,,2 E,,2 | F,,2 F,,2 F,,2 F,,2 | A,,2 A,,2 B,,2 B,,2 | %26
 F,,2 F,,2 F,,2 F,,2 | A,,2 A,,2 E,,2 E,,2 | F,,2 F,,2 F,,2 F,,2 | A,,2 A,,2 B,,2 B,,2 | %30
 F,,2 F,,2 F,,2 F,,2 | A,,2 A,,2 E,,2 E,,2 | F,,2 F,,2 F,,2 F,,2 | A,,2 A,,2 B,,2 B,,2 | %34
 F,,2 F,,2 F,,2 F,,2 | A,,2 A,,2 E,,2 E,,2 | G,,2 G,,2 G,,2 G,,2 | B,,2 B,,2 C,2 C,2 | %38
 G,,2 G,,2 G,,2 G,,2 | B,,2 B,,2 F,,2 F,,2 | G,,2 G,,2 G,,2 G,,2 | B,,2 B,,2 C,2 C,2 | %42
 G,,2 G,,2 G,,2 G,,2 | B,,2 B,,2 F,,2 F,,2 | G,,2 G,,2 G,,2 G,,2 | z8 | z8 | z8 :| %48

